X:2
T:Goreja wici wojenne
C:Piorun
D:Piorun - Goreja wici wojenne
Z:<anamnese@laposte.net> -- http://anamnese.fr.st
M:6/8
L:1/8
Q:1/2=84
K:C
%%staves {1 (2 3)}
V:1
%%MIDI program 6 %harpsi
%%MIDI channel 1
%%MIDI transpose 0
%%MIDI control 7 110 %volume
%%MIDI control 10 85 %pan
A2 ed ef | e2 ed cB | d2 c2 B2 | G2 GA B2 | 
A2 ed ef | e2 ed cB | d2 c2 d2 | e3 f e2 :|
V:2
%%MIDI program 6 %harpsi
%%MIDI channel 2
%%MIDI transpose 0
%%MIDI control 7 90%volume
%%MIDI control 10 85 %pan
[A,,6A,6] | [A,,6A,6]  | [D,6D6] | [G,,6G,6] |
[A,,6A,6] | [A,,6A,6]  | [D,6D6] | [E,6E6]:|
V:3
%%MIDI program 52 %voix 
%%MIDI channel 3
%%MIDI transpose 0
%%MIDI control 7 80%volume
%%MIDI control 10 85 %pan
[A,,6A,6] | [A,,6A,6]  | [D,6D6] | [G,,6G,6] |
[A,,6A,6] | [A,,6A,6]  | [D,6D6] | [E,6E6] :|
